src/assets/icons/home.svg

<svg width="24" height="24" viewBox="0 0 24 24" fill="none" xmlns="http://www.w3.org/2000/svg">
<path d="M21 13V12.9V12.9C21 12.0849 21 11.6773 20.9384 11.2884C20.8149 10.5094 20.5089 9.77067 20.0454 9.13253C19.814 8.81396 19.5258 8.52577 18.9494 7.94939L18.364 7.36396C15.7125 4.7125 14.3868 3.38677 12.7822 3.13263C12.264 3.05055 11.736 3.05055 11.2178 3.13263C9.61323 3.38677 8.2875 4.7125 5.63604 7.36396V7.36396C4.48167 8.51833 3.90449 9.09551 3.54497 9.80112C3.42605 10.0345 3.32566 10.2769 3.24472 10.526C3 11.2791 3 12.0954 3 13.7279V18C3 19.6569 4.34315 21 6 21V21C7.65685 21 9 19.6569 9 18V17C9 15.3431 10.3431 14 12 14V14C13.6569 14 15 15.3431 15 17V18C15 19.6569 16.3431 21 18 21V21C19.6569 21 21 19.6569 21 18V17" stroke="#1D2129" stroke-width="1.5" stroke-linecap="round" stroke-linejoin="round"/>
</svg>

<svg width="24" height="24" fill="none" xmlns="http://www.w3.org/2000/svg"><path d="M21 13v-.1 0c0-.815 0-1.223-.062-1.612a5 5 0 0 0-.893-2.155c-.231-.319-.52-.607-1.096-1.184l-.585-.585c-2.652-2.651-3.977-3.977-5.582-4.231a5 5 0 0 0-1.564 0c-1.605.254-2.93 1.58-5.582 4.231v0C4.482 8.518 3.904 9.096 3.545 9.801a5 5 0 0 0-.3.725C3 11.279 3 12.096 3 13.728V18a3 3 0 0 0 3 3v0a3 3 0 0 0 3-3v-1a3 3 0 0 1 3-3v0a3 3 0 0 1 3 3v1a3 3 0 0 0 3 3v0a3 3 0 0 0 3-3v-1" stroke="#1D2129" stroke-width="1.5" stroke-linecap="round" stroke-linejoin="round"/></svg>
